X: 18
T: Merrily Kiss The Quaker
Z: JACKB
S: https://thesession.org/tunes/70#setting52553
R: slide
M: 12/8
L: 1/8
K: Gmaj
D|:GAB D2B c2A BGE|GAB DEG A3 AGE|
GAB D2B c2A BGE|GAB D2E G3 :||
|:BGG AGG BGG AGE|GAB DEG A3 AGA|
BGG AGG BGG AGE|GAB D2E G3:||
|:g3 aga bag dB/c/d|g3 gab a3 agf|
g3 f3 e/f/ge dBA|GAB D2E G3 :||

